!!!!SEGMENT: pl-wn--sd-xvi-qu-273--133_gomolka-mikolaj--jako-rzecz-piekna-jako-rzecz-przyjemna.krn
!!!cenid: 15xx:338
!!!COM: Gomółka, Mikołaj
!!!COM-rismid: pe30013343
!!!CDT: ~1535->1591/04/30
!!!CNT: Polish
!!!GTL: Melodiae na psalterz polski
!!!OTL: CXXXIII. Jako rzecz piękna, jako rzecz przyjemna
!!!ONB: Ecce quam bonum
!!!PDT: 1580
!!!AGN: Sacred
!!!SMS-siglum: PL-Wn
!!!SMS-shelfmark: SD XVI.Qu.273
!!!SMS-shelfwork: 133 G
!!!NIFC-rismid:
!!!ONB-nifc: Melodiae na psalterz polski
**kern	**text	**kern	**text	**kern	**text	**kern	**text
*part4	*part4	*part3	*part3	*part2	*part2	*part1	*part1
*staff4	*staff4	*staff3	*staff3	*staff2	*staff2	*staff1	*staff1
*clefF3	*	*clefC3	*	*clefC3	*	*clefC1	*
*k[]	*	*k[]	*	*k[]	*	*k[]	*
*C:	*	*C:	*	*C:	*	*C:	*
*M4/2	*	*M4/2	*	*M4/2	*	*M4/2	*
*met(C)	*	*met(C)	*	*met(C)	*	*met(C)	*
=1-	=1-	=1-	=1-	=1-	=1-	=1-	=1-
1C/	JA-	1e\	JA-	2g\	JA-	1cc\	JA-
.	.	.	.	2.g\	-ko	.	.
2G\	-ko	2d\	-ko	.	.	2b\	-ko
.	.	.	.	4f\	rʒecʒ	.	.
2C/	rʒecʒ	1c\	rʒecʒ	2e\	.	2cc\	rʒecʒ
=2-	=2-	=2-	=2-	=2-	=2-	=2-	=2-
1F\	.	.	.	2.f\	pięk-	1a\	.
.	.	4B/	pięk-	.	.	.	.
.	.	4A/	.	4d\	-na,	.	.
2E/	pięk-	2B/	-na,	2.e\	iá-	2g/	pięk-
2C/	-na,	2c/	iá-	.	.	2.g/	-na,
.	.	.	.	4d\	-ko	.	.
=3-	=3-	=3-	=3-	=3-	=3-	=3-	=3-
1c\	iáko	1A/	-ko	1c\	rʒecʒ	.	.
.	.	.	.	.	.	4e/	iáko
.	.	.	.	.	.	2f/	rʒecʒ
2B\	.	2G/	rʒecʒ	2d\	.	2g/	.
4c\	rʒecʒ	1c\	.	4e\	prʒy-	1g\	prʒy-
4B\	.	.	.	4d\	.	.	.
=4-	=4-	=4-	=4-	=4-	=4-	=4-	=4-
4A\	prʒy-	.	.	4c/	-ię-	.	.
4G\	-ię-	.	.	4B/	-mna	.	.
2A\	-mna	4B/	prʒy-	2c/	.	2f/	-ię-
.	.	4A/	.	.	.	.	.
2G\	Pát-	2B/	-ię-	2d\	.	1g\	-mna
2C/	-rzáć,	2c/	-mna	2e\	.	.	.
=5-	=5-	=5-	=5-	=5-	=5-	=5-	=5-
1r	.	1A/	.	1c\	Pát-	1cc\	.
2r	.	2G/	Pát-	2d\	-rzáć,	2b\	Pá-
1c\	gdʒ́ie	4g\	trzáć,	4e\	.	4cc\	-trzáć,
.	.	4f\	.	4d\	gdʒ́ie	4b\	.
=6-	=6-	=6-	=6-	=6-	=6-	=6-	=6-
.	.	4e\	gdʒ́ie	4c/	.	4a\	gdʒ́ie
.	.	4d\	.	4B/	.	4g\	.
2c\	mi-	2e\	mi-	2c/	mi-	2a\	mi-
!!LO:PB:g=original
2B\	-łość	2d\	-łość	2d\	-łość	2g/	-łość
4c\	.	4e\	.	4c\	.	4a\	.
4B\	pá-	4d\	pá-	4d\	pá-	4g/	pá-
=7-	=7-	=7-	=7-	=7-	=7-	=7-	=7-
4A\	-nu-	4c/	-nu-	2e\	.	4f/	-nuje
4G\	-je	4B/	-je	.	.	2g/	wʒaięm-
2A\	wʒa-	2c/	wʒa-	4d\	-nu-	.	.
.	.	.	.	4c\	-je	4f/	-na,
2G\	-ięmna,	2d\	-ięmna,	2B/	wʒa-	2g/	A
2C/	A	2c/	A	2e\	-ięmna	2g/	brá-
=8-	=8-	=8-	=8-	=8-	=8-	=8-	=8-
2F\	brá-	4A/	brá-	2f\	.	2f/	-ćia
.	.	4B/	-ćia	.	.	.	.
2C/	-ćia	1c\	.	2g\	A	2e/	.
1G\	.	.	.	2.g\	brá-	1d/	sfor-
.	.	2B/	sfor-	.	.	.	.
.	.	.	.	4f\	-ćia	.	.
=9-	=9-	=9-	=9-	=9-	=9-	=9-	=9-
4A\	sfor	4c\	-ni	2.e\	.	2c/	-ni
4B\	-ni	4d\	w	.	.	.	.
1c\	w	1e\	sʒcʒé-	.	.	2cc\	w
.	.	.	.	4f\	sfor-	.	.
.	.	.	.	2g\	-ni	1ee\	sʒcʒé-
2A\	sʒcʒé-	2c/	-rej	2.a\	w	.	.
=10-	=10-	=10-	=10-	=10-	=10-	=10-	=10-
2B\	-rej	2d\	u-	.	.	2dd\	-rej
.	.	.	.	4g\	sʒcʒé-	.	.
2c\	u-	2e\	-prʒéy-	2.g\	-rej	1cc\	u-
1G\	-prʒéymoś-	1d\	-moś-	.	.	.	.
.	.	.	.	4f\	.	.	.
.	.	.	.	2d\	u-	2b\	-prʒéy-
=11-	=11-	=11-	=11-	=11-	=11-	=11-	=11-
2C/	-ci	2c/	-ci	2e\	-prʒéy-	2cc\	-moś-
2C/	.	2e\	Strʒe-	2g\	-moś-	2cc\	-ci
2G\	Strʒe-	2d\	.	2g\	-ci	2b\	Strʒe-
2E/	-gą	2e\	.	2g\	Strʒe-	2cc\	-gą
=12-	=12-	=12-	=12-	=12-	=12-	=12-	=12-
2F/	.	2d\	-gą	2.f\	-gą	1a\	ied-
2F/	ied-	1c\	ied-	.	.	.	.
.	.	.	.	4e\	ied-	.	.
1G\	-noś-	.	.	4d\	.	1g\	-noś-
.	.	.	.	4c\	-noś-.	.	.
.	.	2B/	-noś-	2d\	-ći.	.	.
=13-	=13-	=13-	=13-	=13-	=13-	=13-	=13-
000/C	-ći.	000c\	-ći.	000e\	.	000g\	-ći.
==-	==-	==-	==-	==-	==-	==-	==-
*-	*-	*-	*-	*-	*-	*-	*-
!!!RDF**kern: l = terminal long
!!!system-decoration: s1,s2,s3,s4
!!!ENC: Leszek Kubiak
!!!END: data 2020-02-25
!!!URL-scan: https://polona.pl/item/melodiae-na-psalterz-polski,Nzk3MTM4ODQ/311 Scan on Polona
!!!IIIF: https://polona.pl/iiif/item/Nzk3MTM4ODQ/manifest.json
